svgs/sharp-regular/head-side-goggles.svg

<svg xmlns="http://www.w3.org/2000/svg" viewBox="0 0 512 512"><!--! Font Awesome Pro 6.6.0 by @fontawesome - https://fontawesome.com License - https://fontawesome.com/license (Commercial License) Copyright 2024 Fonticons, Inc. --><path d="M112 381.2l0 66.8 0 16 0 48-16 0-32 0 0-32 0-16 0-82.8C26.7 343.1 4.3 292.9 .6 240l48.2 0c3.6 40.4 21.1 78.5 49.6 107.7l13.7 14 0 19.6zM224 48c-37.6 0-72.5 11.8-101.1 32l93.6 0C234 60.4 259.6 48 288 48l-32 0-16 0-16 0zm159 0l1 0 24 0 24 0 32 0 48 0 0 48 0 96 0 48-48 0-32 0-24 0-24 0-96 0c-28.4 0-54-12.4-71.6-32L24 208 0 208l0-24 0-80L0 80l24 0 28.5 0C93.6 31.1 155.2 0 224 0l32 0c48.7 0 93.2 18.1 127 48zm81 224l48 0 0 16 0 16 0 32-16 0-16 0-16 0-16 0 0 48 0 16 0 16 0 32-32 0-16 0-32 0-48 0 0 16 0 16 0 16 0 16-32 0-16 0 0-48 0-16 0-48 48 0 80 0 0-64 0-48 48 0 16 0 0-16zM48 128l0 32 145.3 0c-.9-5.2-1.3-10.5-1.3-16s.5-10.8 1.3-16L48 128zM464 96l-32 0 0 96 32 0 0-96zm-80 0l-96 0c-26.5 0-48 21.5-48 48s21.5 48 48 48l96 0 0-96z"/></svg>

<svg xmlns="http://www.w3.org/2000/svg" viewBox="0 0 512 512"><!--! Font Awesome Pro 6.4.0 by @fontawesome - https://fontawesome.com License - https://fontawesome.com/license (Commercial License) Copyright 2023 Fonticons, Inc. --><path d="M112 381.2V448v16 48H96 64V480 464 381.2C26.7 343.1 4.3 292.9 .6 240H48.7c3.6 40.4 21.1 78.5 49.6 107.7l13.7 14v19.6zM224 48c-37.6 0-72.5 11.8-101.1 32h93.6C234 60.4 259.6 48 288 48H256 240 224zm159 0h1 24 24 32 48V96v96 48H464 432 408 384 288c-28.4 0-54-12.4-71.6-32H24 0V184 104 80H24 52.5C93.6 31.1 155.2 0 224 0h32c48.7 0 93.2 18.1 127 48zm81 224h48v16 16 32H496 480 464 448v48 16 16 32H416 400 368 320v16 16 16 16H288 272V464 448 400h48 80V336 288h48 16V272zM48 128v32H193.3c-.9-5.2-1.3-10.5-1.3-16s.5-10.8 1.3-16H48zM464 96H432v96h32V96zm-80 0H288c-26.5 0-48 21.5-48 48s21.5 48 48 48h96V96z"/></svg>
